X: 4357
T: La DONNA E MOBILE. (Rigoletto.)
%R: air, mazurka, waltz
B: James Kerr "Merry Melodies" v.4 p.38 #357
Z: 2016 John Chambers <jc:trillian.mit.edu>
M: 3/8
L: 1/16
K: G
|:\
B2B2B2 | d>c A4 | A2A2A2 | c>B G4 |\
B2A2G2 | G>F F4 | A2G2E2 | E>D D4 :|\
A>B A2A2 | d2A4 | B>c B2B2 |
e2B4 |\
d>e d2d2 | e4d2 | (3(cdc) B2A2 | G4 D>d |:\
d4 D>d | d4 D>d | (3(cdc) B2A2 |[1 G4 D>d :|[2 G6 |]

%%sep 1 1 500
%%sep 1 1 500

